X:1
T:Wave, 87.84
T:Wave, 87.84
T:Arranged by William B. Bradbury, 1844
T:Public Domain Courtesy of the Cyber Hymnal™
C:Arranged by William B. Bradbury, 1844
Z:Public Domain
Z:Courtesy of the Cyber Hymnal™
%%score ( 1 2 ) ( 3 4 )
L:1/8
Q:1/4=110
M:4/4
K:Bb
V:1 treble 
V:2 treble 
V:3 bass 
V:4 bass 
V:1
 [FB]3 [FB] [FB]2 z [FB] | [Fc]3 [Fc] (ce) [Fd]2 | [FB]3 [FA] [EG]2 ([GB][EG]) | %3
 [DF]2 [CE]2 [B,D]4 | [Ff]3 [Fe] ([Fd][^Fc]) [GB]2 | [=Ec]3 [GB] ([FA][CG]) [CF]2 | B4 [Ec]3 [Ec] | %7
 [DB]6 z2 |] %8
V:2
 x8 | x4 F2 x2 | x8 | x8 | x8 | x8 | (F2 D2) x4 | x8 |] %8
V:3
 [B,D]3 [B,D] [B,D]2 z [D,B,] | [F,A,]3 [F,A,] (A,C) [B,,B,]2 | [D,B,]3 [D,B,] [E,B,]2 [E,B,]2 | %3
 [F,B,]2 [F,A,]2 [B,,B,]4 | [B,,D]3 [C,C] (B,A,) [E,G,]2 | [C,G,]3 [=E,C] (CB,) A,2 | %6
 B,4 [F,A,]3 [F,A,] | [B,,B,]6 z2 |] %8
V:4
 x8 | x4 F,2 x2 | x8 | x8 | x4 D,2 x2 | x4 F,2 (F,_E,) | (D,2 B,,2) x4 | x8 |] %8

